; generated by PrusaSlicer 2.3.3+linux-x64-GTK3 on 2021-08-15 at 18:45:38 UTC

; 

; external perimeters extrusion width = 0.45mm
; perimeters extrusion width = 0.45mm
; infill extrusion width = 0.45mm
; solid infill extrusion width = 0.45mm
; top infill extrusion width = 0.45mm
; first layer extrusion width = 0.42mm

M201 X500 Y500 Z100 E5000 ; sets maximum accelerations, mm/sec^2
M203 X500 Y500 Z10 E60 ; sets maximum feedrates, mm/sec
M204 P500 R1000 T500 ; sets acceleration (P, T) and retract acceleration (R), mm/sec^2
M205 X8.00 Y8.00 Z0.40 E5.00 ; sets the jerk limits, mm/sec
M205 S0 T0 ; sets the minimum extruding and travel feed rate, mm/sec
M107
;TYPE:Custom
G90 ; use absolute coordinates
M83 ; extruder relative mode
M140 S60 ; set final bed temp
M104 S150 ; set temporary nozzle temp to prevent oozing during homing
G4 S10 ; allow partial nozzle warmup
G28 ; home all axis
G1 Z50 F240
G1 X2 Y10 F3000
M104 S215 ; set final nozzle temp
M190 S60 ; wait for bed temp to stabilize
M109 S215 ; wait for nozzle temp to stabilize
G1 Z0.28 F240
G92 E0
G1 Y140 E10 F1500 ; prime the nozzle
G1 X2.3 F5000
G92 E0
G1 Y10 E10 F1200 ; prime the nozzle
G92 E0
G21 ; set units to millimeters
G90 ; use absolute coordinates
M83 ; use relative distances for extrusion
; Filament gcode
;LAYER_CHANGE
;Z:0.2
;HEIGHT:0.2
;BEFORE_LAYER_CHANGE
G92 E0
;0.2


G1 E-5.00000 F3600.000
G1 Z0.200 F9000.000
;AFTER_LAYER_CHANGE
;0.2
G1 X35.813 Y36.525
G1 E5.00000 F2400.000
M204 S500
;TYPE:Skirt
;WIDTH:0.42
G1 F1200.000
G1 X36.512 Y35.909 E0.02923
G1 X37.353 Y35.507 E0.02923
G1 X38.268 Y35.351 E0.02909
G1 X97.379 Y35.349 E1.85338
G1 X98.028 Y35.413 E0.02047
G1 X98.654 Y35.601 E0.02047
G1 X99.231 Y35.905 E0.02047
G1 X99.736 Y36.312 E0.02032
G1 X100.156 Y36.811 E0.02047
G1 X100.471 Y37.378 E0.02032
G1 X100.672 Y37.999 E0.02047
G1 X100.750 Y38.647 E0.02047
G1 X100.751 Y162.735 E3.89070
G1 X100.672 Y163.456 E0.02273
G1 X100.438 Y164.147 E0.02287
G1 X99.930 Y164.934 E0.02937
G1 X99.229 Y165.548 E0.02923
G1 X98.386 Y165.948 E0.02923
G1 X97.462 Y166.102 E0.02937
G1 X38.356 Y166.103 E1.85324
G1 X37.640 Y166.022 E0.02259
G1 X36.953 Y165.790 E0.02273
G1 X36.160 Y165.276 E0.02965
G1 X35.540 Y164.562 E0.02965
G1 X35.142 Y163.704 E0.02965
G1 X34.997 Y162.769 E0.02965
G1 X34.997 Y38.717 E3.88956
G1 X35.077 Y37.996 E0.02273
G1 X35.311 Y37.305 E0.02287
G1 X35.780 Y36.576 E0.02721
G1 E-3.50000 F3600.000
;WIPE_START
G1 F7200.000
G1 X36.512 Y35.909 E-0.47031
G1 X37.353 Y35.507 E-0.44283
G1 X38.268 Y35.351 E-0.44069
G1 X38.418 Y35.351 E-0.07118
;WIPE_END
G1 E-0.07500 F3600.000
G1 X39.061 Y39.413 F9000.000
G1 E5.00000 F2400.000
;TYPE:Perimeter
G1 F1200.000
G1 X40.687 Y39.413 E0.05098
G1 X40.687 Y54.413 E0.47031
G1 X95.061 Y54.413 E1.70486
G1 X95.061 Y39.413 E0.47031
G1 X96.687 Y39.413 E0.05098
G1 X96.687 Y162.039 E3.84485
G1 X95.061 Y162.039 E0.05098
G1 X95.061 Y147.039 E0.47031
G1 X40.687 Y147.039 E1.70486
G1 X40.687 Y162.039 E0.47031
G1 X39.061 Y162.039 E0.05098
G1 X39.061 Y39.473 E3.84297
G1 E-3.50000 F3600.000
;WIPE_START
G1 F7200.000
G1 X40.687 Y39.413 E-0.77280
G1 X40.687 Y40.786 E-0.65220
;WIPE_END
G1 E-0.07500 F3600.000
G1 X41.064 Y54.036 F9000.000
G1 E5.00000 F2400.000
;TYPE:External perimeter
G1 F1200.000
G1 X94.684 Y54.036 E1.68122
G1 X94.684 Y39.036 E0.47031
G1 X97.064 Y39.036 E0.07462
G1 X97.064 Y162.416 E3.86849
G1 X94.684 Y162.416 E0.07462
G1 X94.684 Y147.416 E0.47031
G1 X41.064 Y147.416 E1.68122
G1 X41.064 Y162.416 E0.47031
G1 X38.684 Y162.416 E0.07462
G1 X38.684 Y39.036 E3.86849
G1 X41.064 Y39.036 E0.07462
G1 X41.064 Y53.976 E0.46843
G1 X41.085 Y54.436 F9000.000
G1 E-3.50000 F3600.000
;WIPE_START
G1 F7200.000
G1 X44.064 Y53.979 E-1.42500
;WIPE_END
G1 E-0.07500 F3600.000
G1 X95.811 Y39.526 F9000.000
G1 E5.00000 F2400.000
;TYPE:Solid infill
;WIDTH:0.42034
G1 F1200.000
G1 X96.404 Y40.120 E0.02633
G1 X96.404 Y40.653 E0.01675
G1 X95.447 Y39.696 E0.04249
G1 X95.344 Y39.696 E0.00323
G1 X95.344 Y40.127 E0.01352
G1 X96.404 Y41.187 E0.04706
G1 X96.404 Y41.721 E0.01675
G1 X95.344 Y40.661 E0.04706
G1 X95.344 Y41.194 E0.01675
G1 X96.404 Y42.255 E0.04706
G1 X96.404 Y42.788 E0.01675
G1 X95.344 Y41.728 E0.04706
G1 X95.344 Y42.262 E0.01675
G1 X96.404 Y43.322 E0.04706
G1 X96.404 Y43.856 E0.01675
G1 X95.344 Y42.796 E0.04706
G1 X95.344 Y43.329 E0.01675
G1 X96.404 Y44.390 E0.04706
G1 X96.404 Y44.923 E0.01675
G1 X95.344 Y43.863 E0.04706
G1 X95.344 Y44.397 E0.01675
G1 X96.404 Y45.457 E0.04706
G1 X96.404 Y45.991 E0.01675
G1 X95.344 Y44.931 E0.04706
G1 X95.344 Y45.464 E0.01675
G1 X96.404 Y46.525 E0.04706
G1 X96.404 Y47.058 E0.01675
G1 X95.344 Y45.998 E0.04706
G1 X95.344 Y46.532 E0.01675
G1 X96.404 Y47.592 E0.04706
G1 X96.404 Y48.126 E0.01675
G1 X95.344 Y47.066 E0.04706
G1 X95.344 Y47.599 E0.01675
G1 X96.404 Y48.660 E0.04706
G1 X96.404 Y49.193 E0.01675
G1 X95.344 Y48.133 E0.04706
G1 X95.344 Y48.667 E0.01675
G1 X96.404 Y49.727 E0.04706
G1 X96.404 Y50.261 E0.01675
G1 X95.344 Y49.201 E0.04706
G1 X95.344 Y49.734 E0.01675
G1 X96.404 Y50.795 E0.04706
G1 X96.404 Y51.328 E0.01675
G1 X95.344 Y50.268 E0.04706
G1 X95.344 Y50.802 E0.01675
G1 X96.404 Y51.862 E0.04706
G1 X96.404 Y52.396 E0.01675
G1 X95.344 Y51.336 E0.04706
G1 X95.344 Y51.869 E0.01675
G1 X96.404 Y52.930 E0.04706
G1 X96.404 Y53.463 E0.01675
G1 X95.344 Y52.403 E0.04706
G1 X95.344 Y52.937 E0.01675
G1 X96.404 Y53.997 E0.04706
G1 X96.404 Y54.531 E0.01675
G1 X95.344 Y53.471 E0.04706
G1 X95.344 Y54.004 E0.01675
G1 X96.404 Y55.065 E0.04706
G1 X96.404 Y55.598 E0.01675
G1 X95.344 Y54.538 E0.04706
G1 X95.344 Y54.696 E0.00495
G1 X94.968 Y54.696 E0.01180
G1 X96.404 Y56.132 E0.06374
G1 X96.404 Y56.666 E0.01675
G1 X94.434 Y54.696 E0.08743
G1 X93.901 Y54.696 E0.01675
G1 X96.404 Y57.200 E0.11112
G1 X96.404 Y57.733 E0.01675
G1 X93.367 Y54.696 E0.13481
G1 X92.833 Y54.696 E0.01675
G1 X96.404 Y58.267 E0.15850
G1 X96.404 Y58.801 E0.01675
G1 X92.299 Y54.696 E0.18219
G1 X91.766 Y54.696 E0.01675
G1 X96.404 Y59.335 E0.20587
G1 X96.404 Y59.868 E0.01675
G1 X91.232 Y54.696 E0.22956
G1 X90.698 Y54.696 E0.01675
G1 X96.404 Y60.402 E0.25325
G1 X96.404 Y60.936 E0.01675
G1 X90.164 Y54.696 E0.27694
G1 X89.631 Y54.696 E0.01675
G1 X96.404 Y61.470 E0.30063
G1 X96.404 Y62.003 E0.01675
G1 X89.097 Y54.696 E0.32432
G1 X88.563 Y54.696 E0.01675
G1 X96.404 Y62.537 E0.34801
G1 X96.404 Y63.071 E0.01675
G1 X88.029 Y54.696 E0.37170
G1 X87.496 Y54.696 E0.01675
G1 X96.404 Y63.605 E0.39538
G1 X96.404 Y64.138 E0.01675
G1 X86.962 Y54.696 E0.41907
G1 X86.428 Y54.696 E0.01675
G1 X96.404 Y64.672 E0.44276
G1 X96.404 Y65.206 E0.01675
G1 X85.894 Y54.696 E0.46645
G1 X85.361 Y54.696 E0.01675
G1 X96.404 Y65.740 E0.49014
G1 X96.404 Y66.273 E0.01675
G1 X84.827 Y54.696 E0.51383
G1 X84.293 Y54.696 E0.01675
G1 X96.404 Y66.807 E0.53752
G1 X96.404 Y67.341 E0.01675
G1 X83.759 Y54.696 E0.56121
G1 X83.226 Y54.696 E0.01675
G1 X96.404 Y67.875 E0.58490
G1 X96.404 Y68.408 E0.01675
G1 X82.692 Y54.696 E0.60858
G1 X82.158 Y54.696 E0.01675
G1 X96.404 Y68.942 E0.63227
G1 X96.404 Y69.476 E0.01675
G1 X81.624 Y54.696 E0.65596
G1 X81.091 Y54.696 E0.01675
G1 X96.404 Y70.010 E0.67965
G1 X96.404 Y70.543 E0.01675
G1 X80.557 Y54.696 E0.70334
G1 X80.023 Y54.696 E0.01675
G1 X96.404 Y71.077 E0.72703
G1 X96.404 Y71.611 E0.01675
G1 X79.489 Y54.696 E0.75072
G1 X78.956 Y54.696 E0.01675
G1 X96.404 Y72.145 E0.77441
G1 X96.404 Y72.678 E0.01675
G1 X78.422 Y54.696 E0.79810
G1 X77.888 Y54.696 E0.01675
G1 X96.404 Y73.212 E0.82178
G1 X96.404 Y73.746 E0.01675
G1 X77.354 Y54.696 E0.84547
G1 X76.821 Y54.696 E0.01675
G1 X96.404 Y74.280 E0.86916
G1 X96.404 Y74.814 E0.01675
G1 X76.287 Y54.696 E0.89285
G1 X75.753 Y54.696 E0.01675
G1 X96.404 Y75.347 E0.91654
G1 X96.404 Y75.881 E0.01675
G1 X75.219 Y54.696 E0.94023
G1 X74.686 Y54.696 E0.01675
G1 X96.404 Y76.415 E0.96392
G1 X96.404 Y76.949 E0.01675
G1 X74.152 Y54.696 E0.98761
G1 X73.618 Y54.696 E0.01675
G1 X96.404 Y77.482 E1.01129
G1 X96.404 Y78.016 E0.01675
G1 X73.084 Y54.696 E1.03498
G1 X72.551 Y54.696 E0.01675
G1 X96.404 Y78.550 E1.05867
G1 X96.404 Y79.084 E0.01675
G1 X72.017 Y54.696 E1.08236
G1 X71.483 Y54.696 E0.01675
G1 X96.404 Y79.617 E1.10605
G1 X96.404 Y80.151 E0.01675
G1 X70.949 Y54.696 E1.12974
G1 X70.416 Y54.696 E0.01675
G1 X96.404 Y80.685 E1.15343
G1 X96.404 Y81.219 E0.01675
G1 X69.882 Y54.696 E1.17712
G1 X69.348 Y54.696 E0.01675
G1 X96.404 Y81.752 E1.20081
G1 X96.404 Y82.286 E0.01675
G1 X68.814 Y54.696 E1.22449
G1 X68.281 Y54.696 E0.01675
G1 X96.404 Y82.820 E1.24818
G1 X96.404 Y83.354 E0.01675
G1 X67.747 Y54.696 E1.27187
G1 X67.213 Y54.696 E0.01675
G1 X96.404 Y83.887 E1.29556
G1 X96.404 Y84.421 E0.01675
G1 X66.679 Y54.696 E1.31925
G1 X66.146 Y54.696 E0.01675
G1 X96.404 Y84.955 E1.34294
G1 X96.404 Y85.489 E0.01675
G1 X65.612 Y54.696 E1.36663
G1 X65.078 Y54.696 E0.01675
G1 X96.404 Y86.022 E1.39032
G1 X96.404 Y86.556 E0.01675
G1 X64.544 Y54.696 E1.41400
G1 X64.011 Y54.696 E0.01675
G1 X96.404 Y87.090 E1.43769
G1 X96.404 Y87.624 E0.01675
G1 X63.477 Y54.696 E1.46138
G1 X62.943 Y54.696 E0.01675
G1 X96.404 Y88.157 E1.48507
G1 X96.404 Y88.691 E0.01675
G1 X62.409 Y54.696 E1.50876
G1 X61.876 Y54.696 E0.01675
G1 X96.404 Y89.225 E1.53245
G1 X96.404 Y89.759 E0.01675
G1 X61.342 Y54.696 E1.55614
G1 X60.808 Y54.696 E0.01675
G1 X96.404 Y90.292 E1.57983
G1 X96.404 Y90.826 E0.01675
G1 X60.274 Y54.696 E1.60352
G1 X59.741 Y54.696 E0.01675
G1 X96.404 Y91.360 E1.62720
G1 X96.404 Y91.894 E0.01675
G1 X59.207 Y54.696 E1.65089
G1 X58.673 Y54.696 E0.01675
G1 X96.404 Y92.427 E1.67458
G1 X96.404 Y92.961 E0.01675
G1 X58.139 Y54.696 E1.69827
G1 X57.606 Y54.696 E0.01675
G1 X96.404 Y93.495 E1.72196
G1 X96.404 Y94.029 E0.01675
G1 X57.072 Y54.696 E1.74565
G1 X56.538 Y54.696 E0.01675
G1 X96.404 Y94.562 E1.76934
G1 X96.404 Y95.096 E0.01675
G1 X56.004 Y54.696 E1.79303
G1 X55.471 Y54.696 E0.01675
G1 X96.404 Y95.630 E1.81672
G1 X96.404 Y96.164 E0.01675
G1 X54.937 Y54.696 E1.84040
G1 X54.403 Y54.696 E0.01675
G1 X96.404 Y96.697 E1.86409
G1 X96.404 Y97.231 E0.01675
G1 X53.869 Y54.696 E1.88778
G1 X53.336 Y54.696 E0.01675
G1 X96.404 Y97.765 E1.91147
G1 X96.404 Y98.299 E0.01675
G1 X52.802 Y54.696 E1.93516
G1 X52.268 Y54.696 E0.01675
G1 X96.404 Y98.832 E1.95885
G1 X96.404 Y99.366 E0.01675
G1 X51.734 Y54.696 E1.98254
G1 X51.200 Y54.696 E0.01675
G1 X96.404 Y99.900 E2.00623
G1 X96.404 Y100.434 E0.01675
G1 X50.667 Y54.696 E2.02991
G1 X50.133 Y54.696 E0.01675
G1 X96.404 Y100.967 E2.05360
G1 X96.404 Y101.501 E0.01675
G1 X49.599 Y54.696 E2.07729
G1 X49.065 Y54.696 E0.01675
G1 X96.404 Y102.035 E2.10098
G1 X96.404 Y102.569 E0.01675
G1 X48.532 Y54.696 E2.12467
G1 X47.998 Y54.696 E0.01675
G1 X96.404 Y103.102 E2.14836
G1 X96.404 Y103.636 E0.01675
G1 X47.464 Y54.696 E2.17205
G1 X46.930 Y54.696 E0.01675
G1 X96.404 Y104.170 E2.19574
G1 X96.404 Y104.704 E0.01675
G1 X46.397 Y54.696 E2.21943
G1 X45.863 Y54.696 E0.01675
G1 X96.404 Y105.237 E2.24311
G1 X96.404 Y105.771 E0.01675
G1 X45.329 Y54.696 E2.26680
G1 X44.795 Y54.696 E0.01675
G1 X96.404 Y106.305 E2.29049
G1 X96.404 Y106.839 E0.01675
G1 X44.262 Y54.696 E2.31418
G1 X43.728 Y54.696 E0.01675
G1 X96.404 Y107.372 E2.33787
G1 X96.404 Y107.906 E0.01675
G1 X43.194 Y54.696 E2.36156
G1 X42.660 Y54.696 E0.01675
G1 X96.404 Y108.440 E2.38525
G1 X96.404 Y108.974 E0.01675
G1 X42.127 Y54.696 E2.40894
G1 X41.593 Y54.696 E0.01675
G1 X96.404 Y109.507 E2.43263
G1 X96.404 Y110.041 E0.01675
G1 X40.890 Y54.526 E2.46385
G1 E-3.50000 F3600.000
;WIPE_START
G1 F7200.000
G1 X43.011 Y56.648 E-1.42500
;WIPE_END
G1 E-0.07500 F3600.000
G1 X40.574 Y40.333 F9000.000
G1 E5.00000 F2400.000
G1 F1200.000
G1 X39.937 Y39.696 E0.02829
G1 X39.403 Y39.696 E0.01675
G1 X40.404 Y40.697 E0.04444
G1 X40.404 Y41.231 E0.01675
G1 X39.344 Y40.171 E0.04706
G1 X39.344 Y40.705 E0.01675
G1 X40.404 Y41.765 E0.04706
G1 X40.404 Y42.299 E0.01675
G1 X39.344 Y41.238 E0.04706
G1 X39.344 Y41.772 E0.01675
G1 X40.404 Y42.832 E0.04706
G1 X40.404 Y43.366 E0.01675
G1 X39.344 Y42.306 E0.04706
G1 X39.344 Y42.840 E0.01675
G1 X40.404 Y43.900 E0.04706
G1 X40.404 Y44.434 E0.01675
G1 X39.344 Y43.373 E0.04706
G1 X39.344 Y43.907 E0.01675
G1 X40.404 Y44.967 E0.04706
G1 X40.404 Y45.501 E0.01675
G1 X39.344 Y44.441 E0.04706
G1 X39.344 Y44.975 E0.01675
G1 X40.404 Y46.035 E0.04706
G1 X40.404 Y46.569 E0.01675
G1 X39.344 Y45.508 E0.04706
G1 X39.344 Y46.042 E0.01675
G1 X40.404 Y47.102 E0.04706
G1 X40.404 Y47.636 E0.01675
G1 X39.344 Y46.576 E0.04706
G1 X39.344 Y47.110 E0.01675
G1 X40.404 Y48.170 E0.04706
G1 X40.404 Y48.704 E0.01675
G1 X39.344 Y47.643 E0.04706
G1 X39.344 Y48.177 E0.01675
G1 X40.404 Y49.237 E0.04706
G1 X40.404 Y49.771 E0.01675
G1 X39.344 Y48.711 E0.04706
G1 X39.344 Y49.245 E0.01675
G1 X40.404 Y50.305 E0.04706
G1 X40.404 Y50.839 E0.01675
G1 X39.344 Y49.778 E0.04706
G1 X39.344 Y50.312 E0.01675
G1 X40.404 Y51.372 E0.04706
G1 X40.404 Y51.906 E0.01675
G1 X39.344 Y50.846 E0.04706
G1 X39.344 Y51.380 E0.01675
G1 X40.404 Y52.440 E0.04706
G1 X40.404 Y52.974 E0.01675
G1 X39.344 Y51.913 E0.04706
G1 X39.344 Y52.447 E0.01675
G1 X40.404 Y53.507 E0.04706
G1 X40.404 Y54.041 E0.01675
G1 X39.344 Y52.981 E0.04706
G1 X39.344 Y53.515 E0.01675
G1 X96.404 Y110.575 E2.53243
G1 X96.404 Y111.109 E0.01675
G1 X39.344 Y54.048 E2.53243
G1 X39.344 Y54.582 E0.01675
G1 X96.404 Y111.642 E2.53243
G1 X96.404 Y112.176 E0.01675
G1 X39.344 Y55.116 E2.53243
G1 X39.344 Y55.650 E0.01675
G1 X96.404 Y112.710 E2.53243
G1 X96.404 Y113.244 E0.01675
G1 X39.344 Y56.183 E2.53243
G1 X39.344 Y56.717 E0.01675
G1 X96.404 Y113.777 E2.53243
G1 X96.404 Y114.311 E0.01675
G1 X39.344 Y57.251 E2.53243
G1 X39.344 Y57.785 E0.01675
G1 X96.404 Y114.845 E2.53243
G1 X96.404 Y115.379 E0.01675
G1 X39.344 Y58.318 E2.53243
G1 X39.344 Y58.852 E0.01675
G1 X96.404 Y115.912 E2.53243
G1 X96.404 Y116.446 E0.01675
G1 X39.344 Y59.386 E2.53243
G1 X39.344 Y59.920 E0.01675
G1 X96.404 Y116.980 E2.53243
G1 X96.404 Y117.514 E0.01675
G1 X39.344 Y60.453 E2.53243
G1 X39.344 Y60.987 E0.01675
G1 X96.404 Y118.047 E2.53243
G1 X96.404 Y118.581 E0.01675
G1 X39.344 Y61.521 E2.53243
G1 X39.344 Y62.055 E0.01675
G1 X96.404 Y119.115 E2.53243
G1 X96.404 Y119.649 E0.01675
G1 X39.344 Y62.588 E2.53243
G1 X39.344 Y63.122 E0.01675
G1 X96.404 Y120.182 E2.53243
G1 X96.404 Y120.716 E0.01675
G1 X39.344 Y63.656 E2.53243
G1 X39.344 Y64.190 E0.01675
G1 X96.404 Y121.250 E2.53243
G1 X96.404 Y121.784 E0.01675
G1 X39.344 Y64.723 E2.53243
G1 X39.344 Y65.257 E0.01675
G1 X96.404 Y122.317 E2.53243
G1 X96.404 Y122.851 E0.01675
G1 X39.344 Y65.791 E2.53243
G1 X39.344 Y66.325 E0.01675
G1 X96.404 Y123.385 E2.53243
G1 X96.404 Y123.919 E0.01675
G1 X39.344 Y66.858 E2.53243
G1 X39.344 Y67.392 E0.01675
G1 X96.404 Y124.452 E2.53243
G1 X96.404 Y124.986 E0.01675
G1 X39.344 Y67.926 E2.53243
G1 X39.344 Y68.460 E0.01675
G1 X96.404 Y125.520 E2.53243
G1 X96.404 Y126.054 E0.01675
G1 X39.344 Y68.993 E2.53243
G1 X39.344 Y69.527 E0.01675
G1 X96.404 Y126.587 E2.53243
G1 X96.404 Y127.121 E0.01675
G1 X39.344 Y70.061 E2.53243
G1 X39.344 Y70.595 E0.01675
G1 X96.404 Y127.655 E2.53243
G1 X96.404 Y128.189 E0.01675
G1 X39.344 Y71.129 E2.53243
G1 X39.344 Y71.662 E0.01675
G1 X96.404 Y128.723 E2.53243
G1 X96.404 Y129.256 E0.01675
G1 X39.344 Y72.196 E2.53243
G1 X39.344 Y72.730 E0.01675
G1 X96.404 Y129.790 E2.53243
G1 X96.404 Y130.324 E0.01675
G1 X39.344 Y73.264 E2.53243
G1 X39.344 Y73.797 E0.01675
G1 X96.404 Y130.858 E2.53243
G1 X96.404 Y131.391 E0.01675
G1 X39.344 Y74.331 E2.53243
G1 X39.344 Y74.865 E0.01675
G1 X96.404 Y131.925 E2.53243
G1 X96.404 Y132.459 E0.01675
G1 X39.344 Y75.399 E2.53243
G1 X39.344 Y75.932 E0.01675
G1 X96.404 Y132.993 E2.53243
G1 X96.404 Y133.526 E0.01675
G1 X39.344 Y76.466 E2.53243
G1 X39.344 Y77.000 E0.01675
G1 X96.404 Y134.060 E2.53243
G1 X96.404 Y134.594 E0.01675
G1 X39.344 Y77.534 E2.53243
G1 X39.344 Y78.067 E0.01675
G1 X96.404 Y135.128 E2.53243
G1 X96.404 Y135.661 E0.01675
G1 X39.344 Y78.601 E2.53243
G1 X39.344 Y79.135 E0.01675
G1 X96.404 Y136.195 E2.53243
G1 X96.404 Y136.729 E0.01675
G1 X39.344 Y79.669 E2.53243
G1 X39.344 Y80.202 E0.01675
G1 X96.404 Y137.263 E2.53243
G1 X96.404 Y137.796 E0.01675
G1 X39.344 Y80.736 E2.53243
G1 X39.344 Y81.270 E0.01675
G1 X96.404 Y138.330 E2.53243
G1 X96.404 Y138.864 E0.01675
G1 X39.344 Y81.804 E2.53243
G1 X39.344 Y82.337 E0.01675
