;FLAVOR:Marlin
;TIME:1484
;Filament used: 1.00779m
;Layer height: 0.2
;MINX:33.405
;MINY:62.028
;MINZ:0.2
;MAXX:71.405
;MAXY:149.972
;MAXZ:4
;Generated with Cura_SteamEngine 4.8.0
M140 S60
M105
M190 S60
M104 S200
M105
M109 S200
M82 ;absolute extrusion mode
; Ender 3 Custom Start G-code
G92 E0 ; Reset Extruder
G28 ; Home all axes
G1 Z2.0 F3000 ; Move Z Axis up little to prevent scratching of Heat Bed
G1 X0.1 Y20 Z0.3 F5000.0 ; Move to start position
G1 X0.1 Y200.0 Z0.3 F1500.0 E15 ; Draw the first line
G1 X0.4 Y200.0 Z0.3 F5000.0 ; Move to side a little
G1 X0.4 Y20 Z0.3 F1500.0 E30 ; Draw the second line
G92 E0 ; Reset Extruder
G1 Z2.0 F3000 ; Move Z Axis up little to prevent scratching of Heat Bed
G1 X5 Y20 Z0.3 F5000.0 ; Move over to prevent blob squish
G92 E0
G92 E0
G1 F1500 E-6.5
;LAYER_COUNT:20
;LAYER:0
M107
G0 F6000 X42.39 Y64.871 Z0.2
;TYPE:SKIRT
G1 F1500 E0
G1 F1200 X42.799 Y64.633 E0.01574
G1 X43.25 Y64.383 E0.03289
G1 X43.484 Y64.257 E0.04173
G1 X44.088 Y63.941 E0.0644
G1 X45.185 Y63.442 E0.10449
G1 X45.631 Y63.273 E0.12035
G1 X46.129 Y63.096 E0.13793
G1 X46.394 Y63.006 E0.14724
G1 X47.027 Y62.799 E0.16939
G1 X48.24 Y62.478 E0.21112
G1 X48.631 Y62.401 E0.22437
G1 X49.077 Y62.321 E0.23944
G1 X49.373 Y62.272 E0.24942
G1 X50.113 Y62.16 E0.27432
G1 X51.397 Y62.042 E0.3172
G1 X51.72 Y62.034 E0.32795
G1 X52.229 Y62.028 E0.34488
G1 X52.528 Y62.028 E0.35482
G1 X53.245 Y62.039 E0.37867
G1 X54.181 Y62.094 E0.40986
G1 X54.732 Y62.163 E0.42833
G1 X55.336 Y62.255 E0.44865
G1 X55.66 Y62.31 E0.45958
G1 X56.354 Y62.437 E0.48305
G1 X57.525 Y62.718 E0.5231
G1 X57.917 Y62.84 E0.53675
G1 X58.405 Y63.001 E0.55385
G1 X58.686 Y63.098 E0.56373
G1 X59.333 Y63.331 E0.58661
G1 X60.31 Y63.737 E0.62179
G1 X60.403 Y63.781 E0.62522
G1 X60.819 Y63.988 E0.64067
G1 X61.283 Y64.232 E0.65811
G1 X61.556 Y64.381 E0.66845
G1 X62.18 Y64.732 E0.69226
G1 X63.239 Y65.41 E0.73409
G1 X63.528 Y65.622 E0.74601
G1 X63.919 Y65.919 E0.76234
G1 X64.135 Y66.088 E0.77146
G1 X64.684 Y66.527 E0.79484
G1 X65.508 Y67.257 E0.83146
G1 X65.861 Y67.614 E0.84815
G1 X66.247 Y68.023 E0.86686
G1 X66.448 Y68.242 E0.87675
G1 X66.911 Y68.76 E0.89985
G1 X67.58 Y69.586 E0.93521
G1 X67.894 Y70.03 E0.95329
G1 X68.186 Y70.466 E0.97075
G1 X68.343 Y70.708 E0.98034
G1 X68.73 Y71.32 E1.00443
G1 X69.323 Y72.383 E1.04491
G1 X69.379 Y72.498 E1.04916
G1 X69.514 Y72.787 E1.05977
G1 X69.705 Y73.21 E1.07521
G1 X69.81 Y73.45 E1.08392
G1 X70.091 Y74.114 E1.1079
G1 X70.508 Y75.276 E1.14897
G1 X70.624 Y75.685 E1.16311
G1 X70.747 Y76.148 E1.17904
G1 X70.816 Y76.419 E1.18834
G1 X70.984 Y77.123 E1.21241
G1 X71.173 Y78.12 E1.24616
G1 X71.184 Y78.197 E1.24875
G1 X71.245 Y78.707 E1.26583
G1 X71.296 Y79.241 E1.28368
G1 X71.321 Y79.546 E1.29385
G1 X71.373 Y80.316 E1.31952
G1 X71.397 Y80.92 E1.33963
G1 X71.405 Y81.62 E1.36291
G1 X71.404 Y130.449 E2.98697
G1 X71.394 Y131.154 E3.01042
G1 X71.382 Y131.539 E3.02323
G1 X71.365 Y131.835 E3.03309
G1 X71.327 Y132.379 E3.05123
G1 X71.302 Y132.68 E3.06128
G1 X71.233 Y133.387 E3.0849
G1 X71.061 Y134.529 E3.12332
G1 X71.037 Y134.646 E3.12729
G1 X70.951 Y135.029 E3.14034
G1 X70.837 Y135.499 E3.15643
G1 X70.769 Y135.764 E3.16553
G1 X70.582 Y136.459 E3.18947
G1 X70.248 Y137.494 E3.22564
G1 X70.22 Y137.568 E3.22827
G1 X70.05 Y137.99 E3.2434
G1 X69.824 Y138.52 E3.26257
G1 X69.711 Y138.776 E3.27187
G1 X69.441 Y139.367 E3.29348
G1 X68.868 Y140.455 E3.33438
G1 X68.636 Y140.835 E3.34919
G1 X68.365 Y141.26 E3.36596
G1 X68.211 Y141.494 E3.37527
G1 X67.847 Y142.034 E3.39693
G1 X67.276 Y142.807 E3.4289
G1 X67.191 Y142.912 E3.43339
G1 X66.814 Y143.353 E3.45269
G1 X66.46 Y143.746 E3.47028
G1 X66.273 Y143.948 E3.47944
G1 X65.807 Y144.44 E3.50197
G1 X64.844 Y145.342 E3.54586
G1 X64.584 Y145.555 E3.55704
G1 X64.177 Y145.879 E3.57434
G1 X63.952 Y146.054 E3.58382
G1 X63.402 Y146.469 E3.60674
G1 X62.402 Y147.14 E3.64679
G1 X62.038 Y147.352 E3.6608
G1 X61.574 Y147.61 E3.67846
G1 X61.327 Y147.743 E3.68779
G1 X60.723 Y148.059 E3.71046
G1 X59.626 Y148.558 E3.75055
G1 X59.2 Y148.72 E3.76571
G1 X58.719 Y148.892 E3.7827
G1 X58.416 Y148.995 E3.79334
G1 X57.767 Y149.206 E3.81604
G1 X56.636 Y149.508 E3.85497
G1 X56.508 Y149.535 E3.85932
G1 X56.18 Y149.599 E3.87044
G1 X55.734 Y149.679 E3.88551
G1 X55.438 Y149.728 E3.89549
G1 X54.698 Y149.84 E3.92038
G1 X53.414 Y149.958 E3.96327
G1 X53.091 Y149.966 E3.97401
G1 X52.582 Y149.972 E3.99094
G1 X52.283 Y149.972 E4.00089
G1 X51.565 Y149.961 E4.02477
G1 X50.629 Y149.906 E4.05596
G1 X50.075 Y149.836 E4.07453
G1 X49.472 Y149.744 E4.09482
G1 X49.151 Y149.69 E4.10565
G1 X48.457 Y149.563 E4.12911
G1 X47.286 Y149.282 E4.16916
G1 X46.894 Y149.16 E4.18282
G1 X46.406 Y148.999 E4.19991
G1 X46.125 Y148.902 E4.2098
G1 X45.478 Y148.669 E4.23267
G1 X44.501 Y148.263 E4.26786
G1 X44.408 Y148.219 E4.27128
G1 X43.993 Y148.012 E4.28671
G1 X43.527 Y147.767 E4.30422
G1 X43.252 Y147.618 E4.31462
G1 X42.63 Y147.268 E4.33836
G1 X41.572 Y146.59 E4.38015
G1 X41.283 Y146.378 E4.39207
G1 X40.892 Y146.081 E4.4084
G1 X40.667 Y145.905 E4.41791
G1 X40.113 Y145.461 E4.44152
G1 X39.214 Y144.655 E4.48168
G1 X38.931 Y144.367 E4.49511
G1 X38.566 Y143.981 E4.51278
G1 X38.347 Y143.742 E4.52356
G1 X37.888 Y143.227 E4.5465
G1 X37.194 Y142.365 E4.58331
G1 X37.136 Y142.285 E4.5866
G1 X36.893 Y141.935 E4.60077
G1 X36.616 Y141.52 E4.61736
G1 X36.457 Y141.275 E4.62708
G1 X36.064 Y140.651 E4.65161
G1 X35.476 Y139.593 E4.69186
G1 X35.426 Y139.49 E4.69567
G1 X35.289 Y139.195 E4.70649
G1 X35.003 Y138.554 E4.72984
G1 X34.719 Y137.884 E4.75404
G1 X34.27 Y136.613 E4.79887
G1 X34.176 Y136.277 E4.81048
G1 X34.062 Y135.847 E4.82527
G1 X33.994 Y135.575 E4.8346
G1 X33.825 Y134.865 E4.85887
G1 X33.619 Y133.744 E4.89678
G1 X33.602 Y133.614 E4.90114
G1 X33.558 Y133.221 E4.9143
G1 X33.515 Y132.765 E4.92953
G1 X33.491 Y132.477 E4.93914
G1 X33.438 Y131.696 E4.96518
G1 X33.414 Y131.091 E4.98532
G1 X33.405 Y130.324 E5.01083
G1 X33.406 Y81.534 E6.63359
G1 X33.418 Y80.772 E6.65894
G1 X33.445 Y80.164 E6.67918
G1 X33.486 Y79.588 E6.69839
G1 X33.511 Y79.29 E6.70833
G1 X33.579 Y78.6 E6.73139
G1 X33.78 Y77.331 E6.77413
G1 X33.857 Y76.989 E6.78579
G1 X33.969 Y76.523 E6.80173
G1 X34.042 Y76.236 E6.81158
G1 X34.229 Y75.541 E6.83551
G1 X34.603 Y74.402 E6.87539
G1 X34.776 Y73.973 E6.89077
G1 X34.992 Y73.468 E6.90904
G1 X35.103 Y73.217 E6.91817
G1 X35.378 Y72.616 E6.94015
G1 X35.976 Y71.488 E6.98262
G1 X36.175 Y71.165 E6.99523
G1 X36.441 Y70.747 E7.01171
G1 X36.599 Y70.506 E7.0213
G1 X36.975 Y69.948 E7.04368
G1 X37.711 Y68.977 E7.0842
G1 X37.997 Y68.647 E7.09873
G1 X38.351 Y68.254 E7.11632
G1 X38.537 Y68.052 E7.12545
G1 X39.002 Y67.561 E7.14794
G1 X39.955 Y66.668 E7.19138
G1 X40.25 Y66.426 E7.20407
G1 X40.643 Y66.114 E7.22076
G1 X40.853 Y65.952 E7.22958
G1 X41.405 Y65.535 E7.25259
G1 X42.39 Y64.871 E7.2921
G0 F6000 X42.595 Y65.214
G1 F1200 X42.692 Y65.156 E7.29586
G1 X42.993 Y64.983 E7.30741
G1 X43.444 Y64.733 E7.32456
G1 X43.669 Y64.612 E7.33306
G1 X44.273 Y64.296 E7.35573
G1 X45.33 Y63.815 E7.39435
G1 X45.765 Y63.65 E7.40983
G1 X46.263 Y63.473 E7.42741
G1 X46.518 Y63.386 E7.43637
G1 X47.151 Y63.179 E7.45852
G1 X48.32 Y62.869 E7.49874
G1 X48.702 Y62.795 E7.51168
G1 X49.148 Y62.715 E7.52676
G1 X49.433 Y62.667 E7.53637
G1 X50.173 Y62.555 E7.56126
G1 X51.41 Y62.442 E7.60258
G1 X51.725 Y62.434 E7.61306
G1 X52.234 Y62.428 E7.62999
G1 X52.522 Y62.428 E7.63956
G1 X53.239 Y62.439 E7.66342
G1 X54.158 Y62.493 E7.69403
G1 X54.672 Y62.559 E7.71127
G1 X55.276 Y62.651 E7.73159
G1 X55.588 Y62.703 E7.74211
G1 X56.282 Y62.83 E7.76558
G1 X57.41 Y63.101 E7.80416
G1 X57.792 Y63.22 E7.81747
G1 X58.28 Y63.381 E7.83456
G1 X58.551 Y63.474 E7.84409
G1 X59.198 Y63.707 E7.86696
G1 X60.139 Y64.098 E7.90085
G1 X60.232 Y64.142 E7.90428
G1 X60.633 Y64.342 E7.91918
G1 X61.097 Y64.586 E7.93662
G1 X61.36 Y64.729 E7.94657
G1 X61.984 Y65.08 E7.97039
G1 X63.004 Y65.734 E8.01069
G1 X63.286 Y65.941 E8.02232
G1 X63.677 Y66.238 E8.03865
G1 X63.885 Y66.4 E8.04742
G1 X64.434 Y66.839 E8.0708
G1 X65.228 Y67.543 E8.1061
G1 X65.57 Y67.889 E8.12228
G1 X65.956 Y68.298 E8.14098
G1 X66.15 Y68.509 E8.15051
G1 X66.613 Y69.027 E8.17362
G1 X67.258 Y69.823 E8.2077
G1 X67.561 Y70.253 E8.22519
G1 X67.853 Y70.689 E8.24265
G1 X68.005 Y70.922 E8.2519
G1 X68.392 Y71.534 E8.27598
G1 X68.963 Y72.558 E8.31498
G1 X69.15 Y72.952 E8.32948
G1 X69.341 Y73.375 E8.34492
G1 X69.442 Y73.606 E8.35331
G1 X69.723 Y74.27 E8.37729
G1 X70.124 Y75.39 E8.41685
G1 X70.238 Y75.787 E8.43059
G1 X70.361 Y76.25 E8.44653
G1 X70.426 Y76.512 E8.4555
G1 X70.594 Y77.216 E8.47958
G1 X70.777 Y78.177 E8.51211
G1 X70.788 Y78.254 E8.5147
G1 X70.847 Y78.745 E8.53115
G1 X70.898 Y79.279 E8.54899
G1 X70.922 Y79.573 E8.5588
G1 X70.974 Y80.343 E8.58447
G1 X70.997 Y80.925 E8.60384
G1 X71.005 Y81.62 E8.62696
G1 X71.004 Y130.443 E10.25082
G1 X70.994 Y131.148 E10.27427
G1 X70.982 Y131.522 E10.28672
G1 X70.966 Y131.807 E10.29621
G1 X70.928 Y132.351 E10.31435
G1 X70.904 Y132.642 E10.32406
G1 X70.835 Y133.349 E10.34769
G1 X70.669 Y134.449 E10.38469
G1 X70.645 Y134.566 E10.38866
G1 X70.562 Y134.935 E10.40124
G1 X70.448 Y135.405 E10.41733
G1 X70.383 Y135.66 E10.42608
G1 X70.196 Y136.355 E10.45002
G1 X69.874 Y137.352 E10.48486
G1 X69.683 Y137.833 E10.50208
G1 X69.457 Y138.363 E10.52124
G1 X69.347 Y138.61 E10.53023
G1 X69.077 Y139.201 E10.55184
G1 X68.525 Y140.25 E10.59127
G1 X68.299 Y140.62 E10.60569
G1 X68.028 Y141.045 E10.62245
G1 X67.88 Y141.271 E10.63144
G1 X67.516 Y141.811 E10.6531
G1 X66.965 Y142.556 E10.68392
G1 X66.88 Y142.661 E10.68841
G1 X66.517 Y143.085 E10.70698
G1 X66.163 Y143.478 E10.72457
G1 X65.983 Y143.673 E10.7334
G1 X65.517 Y144.165 E10.75593
G1 X64.589 Y145.034 E10.79822
G1 X64.335 Y145.242 E10.80914
G1 X63.928 Y145.566 E10.82644
G1 X63.711 Y145.735 E10.83559
G1 X63.161 Y146.15 E10.85851
G1 X62.198 Y146.797 E10.89709
G1 X61.843 Y147.002 E10.91073
G1 X61.379 Y147.26 E10.92839
G1 X61.142 Y147.388 E10.93734
G1 X60.538 Y147.704 E10.96002
G1 X59.481 Y148.185 E10.99864
G1 X59.065 Y148.343 E11.01344
G1 X58.584 Y148.515 E11.03043
G1 X58.292 Y148.615 E11.0407
G1 X57.643 Y148.826 E11.0634
G1 X56.554 Y149.117 E11.10089
G1 X56.426 Y149.144 E11.10524
G1 X56.109 Y149.205 E11.11597
G1 X55.663 Y149.285 E11.13105
G1 X55.378 Y149.333 E11.14066
G1 X54.638 Y149.445 E11.16555
G1 X53.401 Y149.558 E11.20687
G1 X53.086 Y149.566 E11.21735
G1 X52.577 Y149.572 E11.23428
G1 X52.29 Y149.572 E11.24382
G1 X51.572 Y149.561 E11.26771
G1 X50.653 Y149.507 E11.29832
G1 X50.135 Y149.441 E11.31569
G1 X49.532 Y149.349 E11.33598
G1 X49.223 Y149.297 E11.3464
G1 X48.529 Y149.17 E11.36987
G1 X47.401 Y148.899 E11.40845
G1 X47.019 Y148.78 E11.42176
G1 X46.531 Y148.619 E11.43885
G1 X46.26 Y148.526 E11.44838
G1 X45.613 Y148.293 E11.47125
G1 X44.672 Y147.902 E11.50515
G1 X44.579 Y147.858 E11.50857
G1 X44.179 Y147.658 E11.52344
G1 X43.713 Y147.413 E11.54095
G1 X43.448 Y147.269 E11.55098
G1 X42.826 Y146.919 E11.57472
G1 X41.807 Y146.266 E11.61498
G1 X41.525 Y146.059 E11.62661
G1 X41.134 Y145.762 E11.64294
G1 X40.917 Y145.592 E11.65211
G1 X40.363 Y145.148 E11.67572
G1 X39.497 Y144.372 E11.7144
G1 X39.222 Y144.092 E11.72745
G1 X38.857 Y143.706 E11.74512
G1 X38.646 Y143.476 E11.7555
G1 X38.187 Y142.961 E11.77845
G1 X37.518 Y142.13 E11.81393
G1 X37.46 Y142.05 E11.81722
G1 X37.226 Y141.713 E11.83086
G1 X36.949 Y141.298 E11.84746
G1 X36.796 Y141.062 E11.85681
G1 X36.403 Y140.438 E11.88134
G1 X35.836 Y139.418 E11.92016
G1 X35.654 Y139.031 E11.93438
G1 X35.463 Y138.606 E11.94988
G1 X35.372 Y138.398 E11.95743
G1 X35.088 Y137.728 E11.98163
G1 X34.655 Y136.503 E12.02485
G1 X34.563 Y136.174 E12.03621
G1 X34.449 Y135.744 E12.051
G1 X34.383 Y135.483 E12.05996
G1 X34.214 Y134.773 E12.08423
G1 X34.015 Y133.692 E12.12079
G1 X33.998 Y133.562 E12.12515
G1 X33.956 Y133.183 E12.13783
G1 X33.913 Y132.727 E12.15307
G1 X33.89 Y132.45 E12.16231
G1 X33.837 Y131.669 E12.18835
G1 X33.814 Y131.086 E12.20775
G1 X33.805 Y130.324 E12.2331
G1 X33.806 Y81.54 E13.85566
G1 X33.818 Y80.778 E13.88101
G1 X33.844 Y80.192 E13.90052
G1 X33.885 Y79.616 E13.91973
G1 X33.909 Y79.329 E13.92931
G1 X33.977 Y78.639 E13.95237
G1 X34.17 Y77.416 E13.99355
G1 X34.245 Y77.083 E14.0049
G1 X34.357 Y76.617 E14.02084
G1 X34.428 Y76.34 E14.03035
G1 X34.615 Y75.645 E14.05429
G1 X34.975 Y74.548 E14.09269
G1 X35.144 Y74.13 E14.10769
G1 X35.36 Y73.625 E14.12595
G1 X35.467 Y73.384 E14.13472
G1 X35.742 Y72.783 E14.15671
G1 X36.318 Y71.696 E14.19762
G1 X36.512 Y71.38 E14.20996
G1 X36.778 Y70.962 E14.22643
G1 X36.93 Y70.73 E14.23566
G1 X37.306 Y70.172 E14.25804
G1 X38.016 Y69.235 E14.29714
G1 X38.294 Y68.915 E14.31124
G1 X38.648 Y68.522 E14.32883
G1 X38.828 Y68.327 E14.33766
G1 X39.293 Y67.836 E14.36015
G1 X40.211 Y66.975 E14.40201
G1 X40.499 Y66.739 E14.41439
G1 X40.892 Y66.427 E14.43108
G1 X41.094 Y66.271 E14.43957
G1 X41.646 Y65.854 E14.46258
G1 X42.595 Y65.214 E14.50065
G0 F6000 X42.8 Y65.558
G1 F1200 X43.187 Y65.333 E14.51554
G1 X43.638 Y65.083 E14.53269
G1 X43.855 Y64.966 E14.54089
G1 X44.459 Y64.65 E14.56357
G1 X45.476 Y64.187 E14.60073
G1 X45.604 Y64.137 E14.6053
G1 X45.899 Y64.027 E14.61577
G1 X46.397 Y63.85 E14.63335
G1 X46.643 Y63.766 E14.642
G1 X47.276 Y63.559 E14.66415
G1 X48.4 Y63.261 E14.70282
G1 X48.772 Y63.188 E14.71543
G1 X49.218 Y63.108 E14.7305
G1 X49.493 Y63.063 E14.73977
G1 X50.233 Y62.951 E14.76467
G1 X51.423 Y62.842 E14.80441
G1 X51.73 Y62.834 E14.81462
G1 X52.239 Y62.828 E14.83156
G1 X52.515 Y62.828 E14.84074
G1 X53.232 Y62.839 E14.86459
G1 X54.134 Y62.893 E14.89464
G1 X54.612 Y62.954 E14.91067
G1 X55.216 Y63.046 E14.93099
G1 X55.516 Y63.097 E14.94111
G1 X56.21 Y63.224 E14.96458
G1 X57.296 Y63.484 E15.00172
G1 X57.667 Y63.6 E15.01464
G1 X58.155 Y63.761 E15.03174
G1 X58.415 Y63.85 E15.04088
G1 X59.062 Y64.083 E15.06375
G1 X59.968 Y64.46 E15.09639
G1 X60.061 Y64.504 E15.09981
G1 X60.446 Y64.696 E15.11412
G1 X60.91 Y64.94 E15.13155
G1 X61.164 Y65.078 E15.14117
G1 X61.788 Y65.429 E15.16498
G1 X62.769 Y66.058 E15.20374
G1 X63.044 Y66.26 E15.21509
G1 X63.435 Y66.557 E15.23142
G1 X63.635 Y66.713 E15.23986
G1 X64.184 Y67.152 E15.26324
G1 X64.949 Y67.828 E15.29719
G1 X65.279 Y68.163 E15.31283
G1 X65.665 Y68.572 E15.33154
G1 X65.852 Y68.776 E15.34074
G1 X66.315 Y69.294 E15.36385
G1 X66.935 Y70.059 E15.3966
G1 X67.229 Y70.475 E15.41354
G1 X67.521 Y70.911 E15.431
G1 X67.667 Y71.136 E15.43992
G1 X68.054 Y71.748 E15.464
G1 X68.604 Y72.733 E15.50152
G1 X68.66 Y72.848 E15.50578
G1 X68.785 Y73.116 E15.51561
G1 X68.976 Y73.539 E15.53105
G1 X69.073 Y73.762 E15.53914
G1 X69.354 Y74.426 E15.56312
G1 X69.741 Y75.503 E15.60118
G1 X69.851 Y75.89 E15.61456
G1 X69.974 Y76.353 E15.6305
G1 X70.037 Y76.604 E15.6391
G1 X70.205 Y77.308 E15.66318
G1 X70.381 Y78.234 E15.69453
G1 X70.392 Y78.311 E15.69711
G1 X70.449 Y78.783 E15.71293
G1 X70.5 Y79.317 E15.73077
G1 X70.523 Y79.6 E15.74021
G1 X70.575 Y80.37 E15.76588
G1 X70.597 Y80.93 E15.78452
G1 X70.605 Y81.62 E15.80747
G1 X70.604 Y130.438 E17.43117
G1 X70.594 Y131.143 E17.45462
G1 X70.583 Y131.505 E17.46666
G1 X70.567 Y131.779 E17.47579
G1 X70.529 Y132.323 E17.49393
G1 X70.506 Y132.603 E17.50327
G1 X70.437 Y133.31 E17.5269
G1 X70.277 Y134.369 E17.56252
G1 X70.253 Y134.486 E17.56649
G1 X70.174 Y134.84 E17.57856
G1 X70.06 Y135.31 E17.59464
G1 X69.997 Y135.556 E17.60309
G1 X69.81 Y136.251 E17.62703
G1 X69.5 Y137.211 E17.66058
G1 X69.315 Y137.676 E17.67723
G1 X69.089 Y138.206 E17.69639
G1 X68.984 Y138.444 E17.70504
G1 X68.714 Y139.035 E17.72665
G1 X68.182 Y140.044 E17.76459
G1 X67.961 Y140.405 E17.77867
G1 X67.69 Y140.83 E17.79543
G1 X67.548 Y141.047 E17.80406
G1 X67.184 Y141.587 E17.82572
G1 X66.654 Y142.304 E17.85537
